!!!!SEGMENT: pl-kc--40102-iii-1-saf--002-018_zielenski-mikolaj--communiones-totius-anni-in-festo-annuntationis-b-m-v-ecce-virgo-concipiet.krn
!!!cenid: 16xx:1549
!!!COM: Zieleński, Mikołaj
!!!COM-rismid: pe30013481
!!!CDT:
!!!CNT: Polish
!!!GTL: Communiones totius anni
!!!OTL: In festo Annuntationis B. M. V./Ecce Virgo concipiet
!!!OMV: 018
!!!PDT: 1611
!!!AGN:
!!!SMS-siglum: PL-Kc
!!!SMS-shelfmark: 40102 III/1 Saf.
!!!SMS-shelfwork: 002-018 G
!!!SMS-variant:
!!!SMS-altvar:
!!!NIFC-rismid: 990069887
!!!URL-scan: https://cyfrowe.mnk.pl/dlibra/publication/24235/edition/23926/content?ref=desc
!!!ONB-nifc: UWAGA: str. 53-54. Uwaga: W xml metrum 2/1 do źródłowego C| i odpowiednio 3/1 do 3/2
!!!key: d:dor
**kern	**kern	**kern	**kern
*group1	*group1	*group1	*group1
*part4	*part3	*part2	*part1
*staff4	*staff3	*staff2	*staff1
*I""Organo	*	*	*
*Iorgan	*Iorgan	*Iorgan	*Iorgan
*ICklav	*ICklav	*ICklav	*ICklav
*clefF4	*clefC4	*clefC3	*clefC1
*k[b-]	*k[b-]	*k[b-]	*k[b-]
*d:dor	*d:dor	*d:dor	*d:dor
*M2/1	*M2/1	*M2/1	*M2/1
*met(C|)	*met(C|)	*met(C|)	*met(C|)
=1	=1	=1	=1
!LO:TX:t=P:problem=all/middle&colon; global	!LO:TX:t=P:problem=all/middle&colon; global	!LO:TX:t=P:problem=all/middle&colon; global	!LO:TX:t=P:problem=all/middle&colon; global
!LO:TX:t=P:problem=all\middle&colon; global	!LO:TX:t=P:problem=all\middle&colon; global	!LO:TX:t=P:problem=all\middle&colon; global	!LO:TX:t=P:problem=all\middle&colon; global
!	!	!LO:TX:a:t=Ecce Virgo coucipiet.	!LO:TX:a:t=18. In feſto ANnuntiationis B.M.V. 2 voc.
00r	1.d	00r	0r
.	2c#X\	.	.
=2-	=2-	=2-	=2-
.	1d	.	1.dd
.	2A/	.	.
.	2A/	.	2cc#X\
=3	=3	=3	=3
0r	2B-\	1.g	1dd
.	4A/	.	.
.	4G/	.	.
.	2d\	.	2a\
.	2.d\	2f#X\	2a\
=4-	=4-	=4-	=4-
1.G	.	1.g	2.b-\
.	4c\	.	.
.	4B-\	.	.
.	4A/	.	4cc\
.	2B-\	.	2dd\
2F#X\	2A/	2d\	2dd\
=5	=5	=5	=5
1G	1B-	2.d\	4g/
.	.	.	4a\
.	.	.	4b-\
.	.	4e\	4g/
2D/	2A/	2f\	2.a\
2F\	2A/	2c/	.
.	.	.	4a\
=6-	=6-	=6-	=6-
2E-X\	1G	2g\	2b-\
2E-\	.	2g\	2cc\
1D	2A/	2.f\	2dd\
.	[<2d\	.	[<2ff\
.	.	4g\	.
=7	=7	=7	=7
00r	2d\]	4a\	2ff\]
.	.	4d\	.
.	2c#X\	2.a\	2ee\
.	2.d\	.	2.ff\
.	.	4g\	.
.	.	4f\	.
.	8c#\	4g\	8ee\
.	8B-\	.	8dd\
=8-	=8-	=8-	=8-
.	2A/	2.a\	2cc\
.	2cny\	.	2.ee\
.	.	4e\	.
.	2B-\	2f\	.
.	.	.	4dd\
.	2G/	4g\	2.dd\
.	.	4f\	.
=9	=9	=9	=9
1r	2.A/	4e\	.
.	.	4d\	8cc#X\
.	.	.	8b-\
!	!	!	!LO:SIC:v:s:t=2cc#\
.	.	2e\	2ccny\
.	4A/	.	.
2r	4D/	2f\	2dd\
.	4E/	.	.
1D\	4F/	1f\	2dd\
.	4G/	.	.
=10-	=10-	=10-	=10-
.	4A/	.	1a
.	4D/	.	.
2C#X/	2.A/	2e\	.
2.D/	.	2.f\	2r
.	4G/	.	.
.	4F/	.	[<2dd\
8C#/	4G/	8e\	.
8BB-/	.	8d\	.
=11	=11	=11	=11
2AA/	2A/	4c/	2dd\]
.	.	4d\	.
2C/	2G/	4e\	2cc\
.	.	8d\	.
.	.	8e\	.
2BB-/	2D/	4f\	2dd\
.	.	4d\	.
4AA/	2.d\	2.g\	2b-\
4GG/	.	.	.
=12-	=12-	=12-	=12-
2D/	.	.	2.a\
.	4A/	8f#X\	.
.	.	8e\	.
!	!	!LO:SIC:v:s:t=2f#\	!
2D/	2.d\	2fny\	.
.	.	.	4a\
1GG	.	2g\	2b-\
.	4c\	.	.
.	4B-\	[<2d\	4g/
.	4A/	.	4a\
=13	=13	=13	=13
2r	2G/	2d\]	4b-\
.	.	.	4a\
1G	4d\	1g	4b-\
.	4c\	.	4cc\
.	4B-\	.	2.dd\
.	4G/	.	.
2F#X\	1d\	2a\	.
.	.	.	4cc\
=14-	=14-	=14-	=14-
2G\	.	2.g\	2b-\
2B-\	2d\	.	4a\
.	.	4g\	4g/
1A	2c#X\	2f\	1a
.	[y2d\	4e\	.
.	.	4d\	.
!LO:SIC:v:t=custos A	!LO:SIC:v:t=custos c	!LO:SIC:v:t=custos e	!LO:SIC:v:t=custos a
!LO:LB:g=original	!LO:LB:g=original	!LO:LB:g=original	!LO:LB:g=original
=15	=15	=15	=15
!	!LO:N:xstem:cue	!	!
1A	4d]	1e	1a
.	8c#X\	.	.
.	8B-\	.	.
!	!LO:SIC:v:s:t=2.c#\	!	!
.	2.cny\	.	.
1D	.	2.f\	2r
.	4d\	.	.
.	1B-\	.	1dd\
.	.	4e\	.
=16-	=16-	=16-	=16-
0r	.	4f\	.
.	.	4g\	.
.	2A/	2a\	2cc\
.	2B-\	2.d\	2dd\
.	2G/	.	4cc\
.	.	4e\	4b-\
=17	=17	=17	=17
1r	1F	4f\	8a\
.	.	.	8f/
.	.	4d\	2b-\
.	.	2c/	.
.	.	.	4a\
2r	2.B-\	2d\	1b-
1BB-/	.	2.d\	.
.	8A/	.	.
.	8G/	.	.
=18-	=18-	=18-	=18-
.	4F/	.	0r
.	4G/	4e\	.
2AA/	4A/	1f	.
.	4G/	.	.
2BB-/	4F/	.	.
.	4D/	.	.
2GG/	2B-\	2g\	.
=19	=19	=19	=19
2.D/	4A/	2f\	00r
.	4G/	.	.
.	4F/	2.a\	.
4E\	4E/	.	.
2.F\	2D/	.	.
.	.	4g\	.
.	2d\	2f\	.
4G\	.	.	.
=20-	=20-	=20-	=20-
2A\	2.c\	2c/	.
1F	.	1a	.
.	4B-\	.	.
.	4A/	.	.
.	4F/	.	.
2E\	2.c\	2g\	.
=21	=21	=21	=21
1F	.	4.f\	1r
.	2B-\	.	.
.	.	16e-X\	.
.	.	16d\	.
.	.	2c/	.
.	4A/	.	.
1BB-	2B-\	2d\	2r
.	4B-\	4f\	4dd\
.	4B-\	4f\	4dd\
=22-	=22-	=22-	=22-
0r	4.d\	4.f\	4.a\
.	8d\	8f\	8a\
.	4A/	4a\	4cc\
.	2B-\	2d\	2b-\
.	4G/	2g\	4b-\
.	2d\	.	2a\
.	.	4f#X\	.
=23	=23	=23	=23
2r	2G/	2g\	2g/
4GG/	4G/	4d\	4b-\
4GG/	4G/	4d\	4b-\
4.D/	4.A/	4.f\	4.a\
8D/	8A/	8f\	8a\
4BB-/	4B-\	4f\	4dd\
2F\	2A/	2f\	2cc\
=24-	=24-	=24-	=24-
.	.	.	.
4D/	4F/	4f\	4dd\
2GG/	2G/	4.d\	2b-\
.	.	8e\	.
1D	2A/	2f\	2a\
.	4D/	4d\	4ff\
.	4D/	4d\	4ff\
=25	=25	=25	=25
1r	4.A/	4.c#X/	4.ee\
.	8A/	8c#/	8ee\
.	4D/	4d\	4ff\
.	2G/	2d\	4b-\
4D/	.	.	2a\
4D/	4F#X/	4A/	.
4.G\	2G/	4.B-/	2g/
8G\	.	8B-/	.
=26-	=26-	=26-	=26-
4F\	0r	4cny/	4a\
2B-\	.	2d\	2f/
4G\	.	2e\	2g/
1A	.	.	.
.	.	8d\	8f/
.	.	8c\	8e/
.	.	[<2d\	[<2f/
=27	=27	=27	=27
0AA	2r	2d\]	2f/]
.	1A	4c#X/	4e/
.	.	4B-/	4d/
.	.	4c#X/	4e/
.	.	2d\	4f/
.	2A/	.	2e/
.	.	4c#X/	.
=28-	=28-	=28-	=28-
1D	1A	2d\	2d/
.	.	4f#X\	4dd\
.	.	4f#\	4dd\
2r	2G/	4.g\	4.b-\
.	.	8g\	8b-\
4G\	4B-\	2d\	[<2g/
4G\	4B-\	.	.
=29	=29	=29	=29
!LO:TX:b:t=Partitura Nicolai Zielenski.	!	!	!
4.E-X\	4.B-\	4.G/	2g/]
8E-\	8B-\	8G/	.
2C/	1c	2G/	4gg\
.	.	.	4gg\
2r	.	4g\	4ee-X\
.	.	4g\	4ee-\
4F\	4A/	2f\	2cc\
4F\	4A/	.	.
=30-	=30-	=30-	=30-
4.D/	4.A/	4f\	4ff\
.	.	4d\	4ff\
8D/	8A/	.	.
4BB-/	4B-\	4.f\	4.dd\
2F\	8A/	.	.
.	8G/	8f\	8dd\
.	4A/	4c/	4a\
4D/	4F#X/	2d\	4a\
2GG/	2G/	.	4b-\
.	.	4e\	4b-\
=31	=31	=31	=31
2D/	2A/	2f#X\	2a\
!LO:TX:b:t=G 3	!	!	!
2BB-/	2G/	2g\	2dd\
2C/	2e-X\	2g\	2cc\
2D/	2d\	2f#X\	2a\
!LO:SIC:v:t=custos GG	!LO:SIC:v:t=custos d	!LO:SIC:v:t=custos g	!LO:SIC:v:t=custos b-
!LO:PB:g=original	!LO:PB:g=original	!LO:PB:g=original	!LO:PB:g=original
=32-	=32-	=32-	=32-
!	!	!	!LO:N:acc=#
1GG	2d\	2g\	2bn\
.	4B-\	4g\	4dd\
.	4B-\	4g\	4dd\
2r	4.G/	4.g\	4.b\
.	8G/	8g\	8b\
4C/	4G/	2e-X\	[y2g/
4C/	4c\	.	.
=33	=33	=33	=33
!	!	!	!LO:N:xstem:cue
4.GG/	4c\	4.d\	4g]
!	!LO:N:acc=#	!	!
.	4Bn\	.	2g/
8GG/	.	8d\	.
2C/	2c\	2e-X\	.
.	.	.	4a\
2r	4.G/	4.d\	4b-\
.	.	.	4g/
.	8G/	8d\	.
4C/	4e-X\	4g\	4.cc\
4C/	2c\	4e-X\	.
.	.	.	16b-\
.	.	.	16cc\
=34-	=34-	=34-	=34-
4.G\	.	2d\	4.dd\
!	!LO:N:acc=#	!	!
.	4Bn\	.	.
8G\	.	.	8dd\
4C/	4c\	4g\	4ee-X\
2E-X\	2G/	2g\	2ee-\
4BB-/	4d\	4g\	4dd\
4C/	[<2e-X\	[<2g\	2cc\
4D/	.	.	.
=35	=35	=35	=35
4E-X\	2e-]	2g\]	2cc\
4C/	.	.	.
!	!	!	!LO:N:acc=#
4G\	2d\	2g\	2bn\
4GG/	.	.	.
0C	4e-X\	4g\	2cc\
.	4d\	4f\	.
.	4c\	4e-X\	2g/
!	!LO:N:acc=#	!	!
.	4Bn\	4d\	.
=36-	=36-	=36-	=36-
.	2c\	2.e-X\	2.cc\
.	1G	.	.
.	.	4d\	4dd\
1C	.	4c/	2.ee-X\
.	.	4B-/	.
.	[<2G/	4c/	.
.	.	4d\	4dd\
=37	=37	=37	=37
1C	2G/]	2e-X\	4cc\
.	.	.	4g/
.	2e-X\	2g\	1cc
1G	1d	1g	.
!	!	!	!LO:N:acc=#
.	.	.	4bn\
.	.	.	4a\
=38-	=38-	=38-	=38-
!	!	!	!LO:N:acc=#
00GG/	00d\	00g\	00bn\
==	==	==	==
*-	*-	*-	*-
!!!system-decoration: g1
!!!RDF**kern: l = terminal long
!!!RDF**kern: > = above
!!!RDF**kern: < = below
!!!AIN: 4 organ
!!!ENC: Andrzej Gręziak
!!!END: 2021-12-18
!!!EED: Jędrzej Mróz
!!!EST: 2021-12-23
